X:393
T:Hills of Glenorchy
C:Scottish
M:6/8
L:1/8
K:D major
%
d/c/ | "Em"B2 E E>FE | BAB d2 B | "D"A2 D D>ED | FDF Adc |
"Em"B2 E E>FE | BAB e2 e | "Bm"dBd AFD | "Em"E>FE E2 :|
|: B |"Em"e>fe edB | e>fg gfe | "D"d>ed dAF | d>cd fed |
"Em"e>fe edB | e>fg gfe | "Bm"dBd AFD | "Em"E>FE E2 :|


